astro/public/img/icons/dt-date-time-tools.svg

<?xml version="1.0" encoding="UTF-8"?>
<svg width="70px" height="70px" viewBox="0 0 70 70" version="1.1" xmlns="http://www.w3.org/2000/svg" xmlns:xlink="http://www.w3.org/1999/xlink">
    <title>dt-date-time-tools</title>
    <defs>
        <linearGradient x1="0.00678222516%" y1="0%" x2="99.9932178%" y2="100%" id="linearGradient-1">
            <stop stop-color="#A4AEBE" offset="0%"></stop>
            <stop stop-color="#2D53F5" offset="100%"></stop>
        </linearGradient>
    </defs>
    <g id="dt-date-time-tools" stroke="none" stroke-width="1" fill="none" fill-rule="evenodd">
        <g id="002-clock" transform="translate(7.750000, 7.766863)" fill="url(#linearGradient-1)">
            <path d="M27.5064268,0 C39.9430557,0 50.8560824,8.34213219 54.0666325,20.3868156 C57.2751514,32.3962062 52.0213393,45.109592 41.2301872,51.3163961 C30.4403892,57.5507912 16.8378264,55.7458618 8.03681932,46.9143522 C7.21194813,46.0866203 7.21426713,44.7468458 8.04199899,43.9219915 C8.86974778,43.0971372 10.2094377,43.099507 11.0342243,43.9272389 C18.4827954,51.4015391 29.9874219,52.9259876 39.114816,47.6513552 C48.2437336,42.4016055 52.6938502,31.6436304 49.9782465,21.4792863 C47.2638277,11.2937834 38.0336865,4.23175797 27.5064268,4.23175797 C26.3377845,4.23175797 25.3905478,3.28445356 25.3905478,2.11587898 C25.3905478,0.947321339 26.3377845,0 27.5064268,0 Z M25.5880863,15.2061283 C26.7565593,15.2061283 27.7039653,16.153365 27.7039653,17.3220072 L27.7039653,27.8690715 L34.7268215,34.8660294 C35.5545534,35.6907144 35.5570924,37.030489 34.7322382,37.8582209 C33.9075532,38.686122 32.5677786,38.6884918 31.7400467,37.8638068 L24.0946143,30.2466424 C23.6961519,29.8497035 23.4722073,29.310239 23.4722073,28.7477538 L23.4722073,17.3220072 C23.4722073,16.153365 24.419444,15.2061283 25.5880863,15.2061283 Z M9.53555565,7.36322501 C10.7041471,7.36322501 11.6513839,8.31052943 11.6513839,9.479104 C11.6513839,10.6476786 10.7041471,11.5949153 9.53555565,11.5949153 L9.50733829,11.5949153 C8.33876371,11.5949153 7.3914593,10.6476786 7.3914593,9.479104 C7.3914593,8.31052943 8.33876371,7.36322501 9.50733829,7.36322501 L9.53555565,7.36322501 Z M17.6604802,1.38237991 C18.8291225,1.38237991 19.7763592,2.32968432 19.7763592,3.4982589 C19.7763592,4.66681654 18.8291225,5.61413788 17.6604802,5.61413788 L17.632212,5.61413788 C16.463739,5.61413788 15.516333,4.66681654 15.516333,3.4982589 C15.516333,2.32968432 16.463739,1.38237991 17.632212,1.38237991 L17.6604802,1.38237991 Z M0,27.4782264 C0,26.3095841 0.947304412,25.3623474 2.11587898,25.3623474 L2.14409635,25.3623474 C3.31265399,25.3623474 4.25997533,26.3095841 4.25997533,27.4782264 C4.25997533,28.6466994 3.31265399,29.5941054 2.14409635,29.5941054 L2.11587898,29.5941054 C0.947304412,29.5941054 0,28.6466994 0,27.4782264 Z M1.91837438,37.0137312 C1.91837438,35.8452582 2.86569572,34.8978523 4.03425336,34.8978523 L4.06247072,34.8978523 C5.23102837,34.8978523 6.17834971,35.8452582 6.17834971,37.0137312 C6.17834971,38.1823735 5.23102837,39.1296102 4.06247072,39.1296102 L4.03425336,39.1296102 C2.86569572,39.1296102 1.91837438,38.1823735 1.91837438,37.0137312 Z M1.91837438,17.6886468 C1.91837438,16.5201737 2.86569572,15.5727678 4.03425336,15.5727678 L4.06247072,15.5727678 C5.23102837,15.5727678 6.17834971,16.5201737 6.17834971,17.6886468 C6.17834971,18.857289 5.23102837,19.8045257 4.06247072,19.8045257 L4.03425336,19.8045257 C2.86569572,19.8045257 1.91837438,18.857289 1.91837438,17.6886468 Z" id="Combined-Shape"></path>
        </g>
    </g>
</svg>

<svg xmlns="http://www.w3.org/2000/svg" width="70" height="70"><defs><linearGradient id="a" x1=".007%" x2="99.993%" y1="0%" y2="100%"><stop offset="0%" stop-color="#A4AEBE"/><stop offset="100%" stop-color="#2D53F5"/></linearGradient></defs><path fill="url(#a)" fill-rule="evenodd" d="M27.506 0c12.437 0 23.35 8.342 26.56 20.387 3.21 12.01-2.045 24.723-12.836 30.93a27.442 27.442 0 0 1-33.193-4.403 2.116 2.116 0 0 1 2.997-2.987 23.21 23.21 0 0 0 28.08 3.724c9.13-5.25 13.58-16.007 10.864-26.172C47.264 11.294 38.034 4.232 27.506 4.232a2.116 2.116 0 1 1 0-4.232Zm-1.918 15.206c1.169 0 2.116.947 2.116 2.116v10.547l7.023 6.997a2.116 2.116 0 0 1-2.987 2.998l-7.645-7.617a2.116 2.116 0 0 1-.623-1.5V17.323c0-1.169.947-2.116 2.116-2.116ZM9.536 7.363a2.116 2.116 0 1 1 0 4.232h-.029a2.116 2.116 0 1 1 0-4.232h.029Zm8.124-5.98a2.116 2.116 0 1 1 0 4.231h-.028a2.116 2.116 0 0 1 0-4.232h.028ZM0 27.477c0-1.168.947-2.116 2.116-2.116h.028a2.116 2.116 0 1 1 0 4.232h-.028A2.116 2.116 0 0 1 0 27.478Zm1.918 9.536c0-1.169.948-2.116 2.116-2.116h.028a2.116 2.116 0 0 1 0 4.232h-.028a2.116 2.116 0 0 1-2.116-2.116Zm0-19.325c0-1.169.948-2.116 2.116-2.116h.028a2.116 2.116 0 0 1 0 4.232h-.028a2.116 2.116 0 0 1-2.116-2.116Z" transform="translate(7.75 7.767)"/></svg>
